static/logos/disney-logotype-white.svg

<svg width="65" height="26" viewBox="0 0 65 26" fill="none" xmlns="http://www.w3.org/2000/svg">
<g clip-path="url(#clip0_1204_198)">
<mask id="mask0_1204_198" style="mask-type:luminance" maskUnits="userSpaceOnUse" x="0" y="0" width="65" height="26">
<path d="M64.5 0H0.5V26H64.5V0Z" fill="white"/>
</mask>
<g mask="url(#mask0_1204_198)">
<path d="M32.6912 2.9557C33.1137 2.97535 33.5174 3.13676 33.837 3.41389C34.2726 3.82627 34.3868 4.51389 34.1806 5.06406C33.3791 6.7139 31.473 7.81589 30.1704 8.18046C29.3912 8.36374 28.406 8.36373 27.6955 8.08882C27.3515 8.29501 27.0613 8.96138 26.6413 8.68447C26.0334 8.20967 26.5596 7.4666 26.2087 6.93934C26.1363 6.83077 25.954 6.8228 25.8624 6.64517C25.3809 5.59099 25.9769 4.58262 26.6413 3.78078C27.749 2.54498 30.9268 1.16807 32.6912 2.9557ZM29.0017 3.78045C28.3828 3.895 27.6839 4.16427 27.306 4.60553C26.9282 5.0468 26.6875 5.47644 26.9166 5.93463C27.7187 5.33898 28.1082 4.5139 29.002 4.00988C29.0017 3.91791 29.1392 3.84918 29.0017 3.78045ZM32.7373 4.00988C31.1559 3.87209 29.9642 5.06406 28.8413 6.20955C28.7726 6.39283 28.3602 6.59902 28.681 6.80521C30.1937 6.94266 31.6373 6.50771 32.7373 5.49902C33.0584 5.20119 33.2868 4.81172 33.1271 4.39901C33.0584 4.23898 32.8967 4.07861 32.7373 4.00988ZM46.4404 10.8386C47.1738 12.6263 47.7924 15.4445 46.4404 17.1634C46.0738 17.5758 45.4323 17.9559 45.02 17.6445C43.5072 16.4303 42.8661 14.6885 41.9265 13.1299C41.789 13.0612 41.789 13.2448 41.7203 13.3136C41.3766 14.8947 42.0181 16.9572 40.9413 18.1943C40.529 18.2631 40.1432 18.0509 40.0017 17.6445C39.4745 16.0176 40.024 14.3216 40.1614 12.6947C40.4825 11.8696 40.6199 10.9074 41.3305 10.2885C42.4763 10.7467 43.0261 12.0303 43.6902 12.9699C44.172 13.6801 44.5611 14.4823 45.1109 15.1238C45.592 14.9176 45.3553 14.2887 45.3404 13.9092C45.1564 12.4197 44.744 11.0448 44.3542 9.62411C44.332 9.25755 44.1258 8.63865 44.5146 8.40956C45.5472 8.86808 45.9818 9.94484 46.4404 10.8386ZM39.5199 10.2885C39.5199 10.6324 39.245 11.0621 39.0153 11.1136C36.8156 11.4572 34.3636 11.251 32.3014 11.9383C32.2326 12.1903 32.5305 12.2361 32.6908 12.3049C34.4549 12.5798 36.3116 12.6485 38.0305 13.0841C38.9392 13.3149 39.2683 14.3907 39.337 15.2841C39.3792 15.9887 39.1082 16.8423 38.4203 17.3238C36.7249 18.4009 34.1355 18.3547 32.4162 17.3699C31.7592 17.0014 31.133 16.4077 31.0871 15.6743C31.0911 15.0919 31.3395 14.6334 31.7519 14.4139C33.402 13.7492 35.4413 14.1164 36.8624 14.9637C36.9534 15.4223 36.4573 15.3974 36.2199 15.5597C34.6385 16.4764 33.4472 14.5291 31.9806 15.2386C31.7744 15.3761 31.6254 15.7596 31.8661 15.8805C33.6763 16.6826 35.693 16.1095 37.4803 15.6055C37.6865 15.5368 37.9388 15.3306 37.9614 15.1244C37.8927 14.391 37.0679 14.2309 36.5407 14.0248C34.9825 13.6353 33.2639 13.6353 31.5908 13.4749C31.2701 13.4062 30.8614 13.1827 30.7661 12.9251C30.5828 12.3753 30.5828 11.6189 30.9952 11.1607C33.1261 9.28145 36.3571 9.44216 39.0611 9.94617C39.2447 10.0136 39.4509 10.0823 39.5199 10.2885ZM29.506 11.1594C29.7122 13.359 29.8268 15.399 29.781 17.7132C29.7351 18.0107 29.3915 18.0798 29.1624 18.1943C28.7958 18.2631 28.322 18.185 28.1769 17.9882C27.65 17.1398 27.8333 15.9947 27.7875 14.9634C27.8562 13.3368 27.8333 11.5721 28.2918 10.0594C28.3795 9.83959 28.6355 9.64702 28.8417 9.78414C29.3915 10.0594 29.4831 10.6095 29.506 11.1594ZM54.9658 10.8386C55.076 11.0239 55.1912 11.3101 54.9658 11.4343C53.9345 11.8925 52.537 11.6863 51.345 11.8238C51.0243 12.0987 50.772 12.5569 50.8862 12.9696C51.0014 13.0383 51.104 13.1429 51.2305 13.1296C51.9633 13.1758 53.0636 12.786 53.5454 13.4733C53.6629 13.6778 53.5294 14.4415 53.2017 14.4587C52.3076 14.5739 50.8374 14.3465 50.4054 14.5739C49.8556 14.9405 49.9011 15.6507 49.6949 16.2241C50.0847 16.4761 50.4927 16.2181 50.9549 16.155C51.8036 16.0176 52.7432 15.7656 53.5905 15.9488C53.7509 16.2467 53.9803 16.5677 53.8196 16.9343C52.375 18.0801 50.5117 19.2545 48.5265 18.4238C47.7814 18.0898 47.4494 16.9572 47.7017 15.9953C47.8618 15.3077 48.572 14.6433 48.137 13.9099C48.0683 13.5888 48.2519 13.3142 48.5268 13.2455C49.2828 13.2455 49.1221 12.3059 49.5119 11.8702C49.0766 11.3891 47.977 11.412 48.0915 10.4495C48.6188 10.1746 49.2606 10.2662 49.8556 10.1746C51.2076 9.89935 52.72 9.73899 54.0959 9.89936C54.3698 9.95447 54.7367 10.495 54.9658 10.8386ZM22.2416 5.6139C24.3563 7.34242 27.0998 10.2888 26.7562 13.6801C26.3435 16.3616 23.502 18.378 21.0958 19.0198C18.7584 19.7071 15.8252 19.6383 13.4416 19.0885C13.2813 19.5241 13.1209 20.0507 12.6169 20.2343C12.2961 20.3489 11.8834 20.2801 11.6314 20.0739C10.9212 19.4092 11.494 18.1259 10.4627 17.7139C8.44596 16.8659 6.26887 15.1928 5.23793 13.1306C5.10047 12.7182 5.26084 12.3059 5.51285 11.9851C7.09429 10.7248 9.08777 10.2207 11.0816 9.83096C11.1961 9.87678 11.1503 9.71641 11.242 9.67059C11.3565 8.29567 11.4023 6.89751 11.8376 5.66005C11.9369 5.4864 12.1813 5.43095 12.342 5.5455C13.6023 6.50771 13.0063 8.31858 13.5565 9.62444C15.9627 9.73899 18.3689 9.85354 20.2707 11.2059C20.9125 11.7328 21.0689 12.7392 20.8664 13.3142C20.6642 13.8883 19.9958 14.2997 19.3769 14.3448C18.9642 14.3448 18.1853 14.385 18.2311 14.0702C18.2769 13.7552 19.6329 13.2395 19.2166 12.8095C18.6179 12.1916 15.6227 11.8241 13.7663 11.595C13.5373 11.5492 13.3271 11.6179 13.3271 11.8699C13.2813 13.6114 13.1438 15.5361 13.4416 17.2096C13.4645 17.3244 13.602 17.4619 13.7169 17.4841C16.9936 18.0114 20.454 17.7132 23.0206 15.8343C24.2122 14.8724 24.602 13.5194 24.3955 12.0303C23.3642 7.88263 19.0333 5.38447 15.4813 3.78045C12.0212 2.26807 8.19396 1.48881 4.09211 1.69533C3.43901 1.74314 2.40409 1.96858 2.39645 2.19967C2.38881 2.43076 3.56883 2.35805 3.42739 2.79533C3.28628 3.23227 2.087 2.97296 1.73173 2.86406C1.37647 2.75515 1.411 2.24516 1.50264 1.92442C2.39645 0.343318 4.89063 0.215488 6.01719 0.16004C12.25 -0.000660421 18.2773 2.37299 22.2416 5.6139ZM11.0129 11.7554C9.43142 11.7783 7.75867 11.9386 6.29211 12.4885C5.99428 12.603 5.62739 12.9238 5.85649 13.3136C6.45215 14.1154 7.30413 14.7738 8.10232 15.2383C8.90051 15.7022 9.95867 16.2925 10.9212 16.4303C11.1503 14.9405 11.1503 13.4739 11.1274 11.9386C11.0354 11.8928 11.1271 11.8012 11.0129 11.7554ZM58.3797 9.66993C58.311 11.6634 56.4543 12.9012 56.4543 14.8947C56.523 14.9634 56.5695 15.055 56.6605 15.0099C58.1506 13.3826 59.6168 11.0681 61.7939 10.3808C62.3676 10.335 62.8859 10.8333 63.1004 11.2059C63.8568 12.7182 63.6742 14.8495 62.6197 16.2244C61.5316 17.5741 59.6401 18.9284 57.4869 18.699C56.5934 20.899 55.9735 23.2136 55.6298 25.6198C55.4466 26.1009 55.0116 25.6656 54.7367 25.5739C52.8807 24.1074 54.4047 20.225 54.5305 19.7296C54.6563 19.2356 55.1531 18.0702 55.5163 17.0943C54.6454 15.5365 55.1952 13.6569 55.9054 12.2132C56.4553 11.2507 57.2123 10.2881 58.1058 9.55504C58.2193 9.55538 58.311 9.57829 58.3797 9.66993ZM62.0698 12.1448C61.7949 12.099 61.68 12.4659 61.4513 12.5346C60.3974 13.7263 59.3429 14.9179 58.8156 16.3386C59.5265 16.4303 60.1218 15.9721 60.741 15.7201C61.7949 15.0554 62.4596 13.956 62.3909 12.6953C62.3447 12.4885 62.1615 12.3281 62.0698 12.1448Z" fill="white"/>
</g>
</g>
<defs>
<clipPath id="clip0_1204_198">
<rect width="64" height="26" fill="white" transform="translate(0.5)"/>
</clipPath>
</defs>
</svg>

<svg xmlns="http://www.w3.org/2000/svg" width="160" height="64" fill="none" viewBox="0 0 65 26"><g clip-path="url(#a)"><mask id="b" width="65" height="26" x="0" y="0" maskUnits="userSpaceOnUse" style="mask-type:luminance"><path fill="#fff" d="M64.5 0H.5v26h64z"/></mask><g mask="url(#b)"><path fill="#fff" d="M32.691 2.956c.423.02.826.18 1.146.458.436.412.55 1.1.344 1.65-.802 1.65-2.708 2.752-4.01 3.116-.78.184-1.765.184-2.476-.091-.343.206-.634.872-1.054.595-.608-.474-.081-1.217-.432-1.745-.073-.108-.255-.116-.347-.294-.481-1.054.115-2.062.78-2.864 1.107-1.236 4.285-2.613 6.05-.825m-3.69.824c-.618.115-1.317.384-1.695.826-.378.44-.619.87-.39 1.329.803-.596 1.192-1.421 2.086-1.925 0-.092.137-.16 0-.23m3.736.23c-1.581-.138-2.773 1.054-3.896 2.2-.068.183-.48.389-.16.595 1.513.138 2.956-.297 4.056-1.306.321-.298.55-.687.39-1.1a.8.8 0 0 0-.39-.39m13.703 6.829c.734 1.787 1.352 4.605 0 6.324-.366.413-1.008.793-1.42.482-1.513-1.215-2.154-2.956-3.094-4.515-.137-.069-.137.115-.206.184-.343 1.58.298 3.643-.779 4.88a.825.825 0 0 1-.94-.55c-.526-1.626.023-3.322.16-4.95.322-.824.459-1.787 1.17-2.405 1.145.458 1.695 1.741 2.36 2.68.481.711.87 1.513 1.42 2.155.481-.206.244-.835.23-1.215-.185-1.49-.597-2.864-.987-4.285-.022-.366-.228-.985.16-1.214 1.033.458 1.468 1.535 1.926 2.429m-6.92-.55c0 .343-.275.773-.505.825-2.2.343-4.651.137-6.714.824-.068.252.23.298.39.367 1.764.275 3.62.344 5.34.78.908.23 1.237 1.306 1.306 2.2.042.704-.229 1.557-.917 2.039-1.695 1.077-4.285 1.03-6.004.046-.657-.369-1.283-.962-1.329-1.696.004-.582.253-1.04.665-1.26 1.65-.665 3.69-.298 5.11.55.091.458-.405.433-.642.596-1.581.916-2.773-1.03-4.24-.321-.206.137-.355.52-.114.641 1.81.803 3.827.23 5.614-.275.207-.068.459-.274.481-.48-.068-.734-.893-.894-1.42-1.1-1.558-.39-3.277-.39-4.95-.55-.32-.069-.73-.292-.825-.55-.183-.55-.183-1.306.23-1.764 2.13-1.88 5.361-1.719 8.065-1.215.184.068.39.136.459.343m-10.014.87c.206 2.2.32 4.24.275 6.554-.046.298-.39.367-.619.481-.366.07-.84-.009-.985-.206-.527-.848-.344-1.993-.39-3.025.07-1.626.046-3.39.505-4.904.087-.22.343-.412.55-.275.55.275.641.825.664 1.375m25.46-.32c.11.185.225.471 0 .595-1.032.459-2.429.252-3.621.39-.32.275-.573.733-.459 1.146.115.068.218.173.344.16.733.046 1.834-.344 2.315.343.118.205-.016.968-.343.986-.894.115-2.365-.112-2.797.115-.55.367-.504 1.077-.71 1.65.39.252.798-.006 1.26-.069.849-.137 1.788-.39 2.636-.206.16.298.39.619.229.985-1.445 1.146-3.308 2.32-5.294 1.49-.745-.334-1.077-1.467-.824-2.429.16-.687.87-1.352.435-2.085-.069-.321.115-.596.39-.665.756 0 .595-.94.985-1.375-.435-.48-1.535-.458-1.42-1.42.527-.275 1.169-.184 1.764-.275 1.352-.276 2.864-.436 4.24-.276.274.055.64.596.87.94M22.242 5.614c2.114 1.728 4.858 4.675 4.514 8.066-.413 2.682-3.254 4.698-5.66 5.34-2.338.687-5.27.618-7.654.069-.16.435-.321.962-.825 1.145-.32.115-.734.046-.986-.16-.71-.665-.137-1.948-1.168-2.36-2.017-.848-4.194-2.521-5.225-4.583-.138-.413.023-.825.275-1.146 1.581-1.26 3.575-1.764 5.569-2.154.114.046.068-.115.16-.16.114-1.375.16-2.773.596-4.01.099-.175.343-.23.504-.115 1.26.962.664 2.773 1.214 4.078 2.407.115 4.813.23 6.715 1.582.642.527.798 1.533.595 2.108-.202.574-.87.986-1.49 1.03-.412 0-1.19.041-1.145-.274.046-.315 1.402-.83.986-1.26-.6-.618-3.594-.986-5.45-1.215-.23-.046-.44.023-.44.275-.046 1.741-.183 3.666.115 5.34a.41.41 0 0 0 .275.274c3.277.527 6.737.23 9.304-1.65 1.191-.962 1.581-2.315 1.374-3.804-1.03-4.147-5.362-6.646-8.914-8.25A25.1 25.1 0 0 0 4.092 1.695c-.653.048-1.688.274-1.696.505-.007.23 1.173.158 1.031.595-.14.437-1.34.178-1.695.07-.356-.11-.321-.62-.23-.94C2.397.342 4.892.214 6.018.16 12.25 0 18.277 2.373 22.242 5.614m-11.23 6.141c-1.58.023-3.253.184-4.72.733-.298.115-.665.436-.436.826.596.801 1.448 1.46 2.246 1.924.799.464 1.857 1.055 2.82 1.192.228-1.49.228-2.956.205-4.491-.092-.046 0-.138-.114-.184M58.38 9.67c-.069 1.993-1.926 3.231-1.926 5.225.069.068.115.16.206.115 1.49-1.627 2.957-3.942 5.134-4.63.574-.045 1.092.453 1.306.826.757 1.512.574 3.644-.48 5.018-1.088 1.35-2.98 2.704-5.133 2.475a29.4 29.4 0 0 0-1.857 6.92c-.183.482-.618.047-.893-.045-1.856-1.467-.332-5.349-.206-5.844.125-.494.622-1.66.985-2.636-.87-1.558-.32-3.437.39-4.88.55-.963 1.306-1.926 2.2-2.659.113 0 .205.023.274.115m3.69 2.475c-.275-.046-.39.32-.619.39-1.054 1.191-2.108 2.383-2.635 3.804.71.091 1.306-.367 1.925-.619 1.054-.665 1.719-1.764 1.65-3.025-.046-.207-.23-.367-.321-.55"/></g></g><defs><clipPath id="a"><path fill="#fff" d="M.5 0h64v26H.5z"/></clipPath></defs></svg>
